cssgg/arrows-exchange-v.svg

<svg
  width="24"
  height="24"
  viewBox="0 0 24 24"
  fill="none"
  xmlns="http://www.w3.org/2000/svg"
>
  <path
    d="M12.9842 15C12.9842 15.5523 13.4319 16 13.9842 16C14.3416 16 14.6552 15.8125 14.832 15.5305L17.5196 12.8429C17.9101 12.4524 17.9101 11.8192 17.5196 11.4287C17.1291 11.0382 16.4959 11.0382 16.1054 11.4287L14.9842 12.5499L14.9842 5C14.9842 4.44771 14.5364 4 13.9842 4C13.4319 4 12.9842 4.44772 12.9842 5L12.9842 14.9506C12.984 14.9597 12.984 14.9688 12.9842 14.9779V15Z"
    fill="currentColor"
  />
  <path
    d="M11.016 9C11.016 8.44771 10.5682 8 10.016 8C9.65856 8 9.34496 8.18748 9.16813 8.46947L6.48052 11.1571C6.08999 11.5476 6.08999 12.1808 6.48051 12.5713C6.87104 12.9618 7.5042 12.9618 7.89473 12.5713L9.01596 11.4501L9.01596 19C9.01596 19.5523 9.46367 20 10.016 20C10.5682 20 11.016 19.5523 11.016 19L11.016 9.04945C11.0161 9.04033 11.0161 9.03121 11.016 9.02208V9Z"
    fill="currentColor"
  />
</svg>

<svg viewBox="0 0 24 24" xmlns="http://www.w3.org/2000/svg"><g><path d="M12.98 15c0 .55.44 1 1 1 .35 0 .67-.19.84-.47l2.68-2.69c.39-.4.39-1.03 0-1.42 -.4-.4-1.03-.4-1.42 0l-1.13 1.12V4.99c0-.56-.45-1-1-1 -.56 0-1 .44-1 1v9.95c-.01 0-.01.01 0 .02v.02Z"/><path d="M11.01 9c0-.56-.45-1-1-1 -.36 0-.68.18-.85.46l-2.69 2.68c-.4.39-.4 1.02-.01 1.41 .39.39 1.02.39 1.41 0l1.12-1.13v7.54c0 .55.44 1 1 1 .55 0 1-.45 1-1V9c0-.01 0-.02 0-.03v-.03Z"/></g></svg>
